svg/system/eye_line.svg

<?xml version="1.0" encoding="UTF-8"?>
<svg width="24px" height="24px" viewBox="0 0 24 24" version="1.1" xmlns="http://www.w3.org/2000/svg" xmlns:xlink="http://www.w3.org/1999/xlink">
    <title>eye_line</title>
    <g id="页面-1" stroke="none" stroke-width="1" fill="none" fill-rule="evenodd">
        <g id="System" transform="translate(-432.000000, 0.000000)" fill-rule="nonzero">
            <g id="eye_line" transform="translate(432.000000, 0.000000)">
                 <path d="M24,0 L24,24 L0,24 L0,0 L24,0 Z M12.5934901,23.257841 L12.5819402,23.2595131 L12.5108777,23.2950439 L12.4918791,23.2987469 L12.4918791,23.2987469 L12.4767152,23.2950439 L12.4056548,23.2595131 C12.3958229,23.2563662 12.3870493,23.2590235 12.3821421,23.2649074 L12.3780323,23.275831 L12.360941,23.7031097 L12.3658947,23.7234994 L12.3769048,23.7357139 L12.4804777,23.8096931 L12.4953491,23.8136134 L12.4953491,23.8136134 L12.5071152,23.8096931 L12.6106902,23.7357139 L12.6232938,23.7196733 L12.6232938,23.7196733 L12.6266527,23.7031097 L12.609561,23.275831 C12.6075724,23.2657013 12.6010112,23.2592993 12.5934901,23.257841 L12.5934901,23.257841 Z M12.8583906,23.1452862 L12.8445485,23.1473072 L12.6598443,23.2396597 L12.6498822,23.2499052 L12.6498822,23.2499052 L12.6471943,23.2611114 L12.6650943,23.6906389 L12.6699349,23.7034178 L12.6699349,23.7034178 L12.678386,23.7104931 L12.8793402,23.8032389 C12.8914285,23.8068999 12.9022333,23.8029875 12.9078286,23.7952264 L12.9118235,23.7811639 L12.8776777,23.1665331 C12.8752882,23.1545897 12.8674102,23.1470016 12.8583906,23.1452862 L12.8583906,23.1452862 Z M12.1430473,23.1473072 C12.1332178,23.1423925 12.1221763,23.1452606 12.1156365,23.1525954 L12.1099173,23.1665331 L12.0757714,23.7811639 C12.0751323,23.7926639 12.0828099,23.8018602 12.0926481,23.8045676 L12.108256,23.8032389 L12.3092106,23.7104931 L12.3186497,23.7024347 L12.3186497,23.7024347 L12.3225043,23.6906389 L12.340401,23.2611114 L12.337245,23.2485176 L12.337245,23.2485176 L12.3277531,23.2396597 L12.1430473,23.1473072 Z" id="MingCute" fill-rule="nonzero"></path>
                <path d="M12,4 C14.7867,4 17.2628,5.25676 19.0257,6.81276 C19.9108,7.59401 20.6403,8.47094 21.1544,9.34416 C21.6593,10.2015 22,11.1299 22,12 C22,12.8701 21.6593,13.7985 21.1544,14.6558 C20.6403,15.5291 19.9108,16.406 19.0257,17.1872 C17.2628,18.7432 14.7867,20 12,20 C9.21333,20 6.73725,18.7432 4.97431,17.1872 C4.08915,16.406 3.35973,15.5291 2.84556,14.6558 C2.34075,13.7985 2,12.8701 2,12 C2,11.1299 2.34075,10.2015 2.84556,9.34416 C3.35973,8.47094 4.08915,7.59401 4.97431,6.81276 C6.73725,5.25676 9.21333,4 12,4 Z M12,6 C9.81611,6 7.79219,6.99324 6.29777,8.31224 C5.55424,8.96849 4.96565,9.68531 4.56897,10.359 C4.16293,11.0485 4,11.6201 4,12 C4,12.3799 4.16293,12.9515 4.56897,13.641 C4.96565,14.3147 5.55424,15.0315 6.29777,15.6878 C7.79219,17.0068 9.81611,18 12,18 C14.1839,18 16.2078,17.0068 17.7022,15.6878 C18.4458,15.0315 19.0344,14.3147 19.431,13.641 C19.8371,12.9515 20,12.3799 20,12 C20,11.6201 19.8371,11.0485 19.431,10.359 C19.0344,9.68531 18.4458,8.96849 17.7022,8.31224 C16.2078,6.99324 14.1839,6 12,6 Z M12,9 C12.088,9 12.1751,9.00379 12.2611,9.01121 C12.0949,9.30283 12,9.64033 12,10 C12,11.1046 12.8954,12 14,12 C14.3597,12 14.6972,11.9051 14.9888,11.7389 C14.9962,11.8249 15,11.912 15,12 C15,13.6569 13.6569,15 12,15 C10.3431,15 9,13.6569 9,12 C9,10.3431 10.3431,9 12,9 Z" id="形状" fill="#09244B"></path>
            </g>
        </g>
    </g>
</svg>

<svg xmlns="http://www.w3.org/2000/svg" width="24" height="24"><g fill="none" fill-rule="nonzero"><path d="M24 0v24H0V0h24ZM12.593 23.258l-.011.002-.071.035-.02.004-.014-.004-.071-.035c-.01-.004-.019-.001-.024.005l-.004.01-.017.428.005.02.01.013.104.074.015.004.012-.004.104-.074.012-.016.004-.017-.017-.427c-.002-.01-.009-.017-.017-.018Zm.265-.113-.013.002-.185.093-.01.01-.003.011.018.43.005.012.008.007.201.093c.012.004.023 0 .029-.008l.004-.014-.034-.614c-.003-.012-.01-.02-.02-.022Zm-.715.002a.023.023 0 0 0-.027.006l-.006.014-.034.614c0 .012.007.02.017.024l.015-.002.201-.093.01-.008.004-.011.017-.43-.003-.012-.01-.01-.184-.092Z"/><path fill="#09244B" d="M12 4c2.787 0 5.263 1.257 7.026 2.813.885.781 1.614 1.658 2.128 2.531.505.857.846 1.786.846 2.656 0 .87-.34 1.799-.846 2.656-.514.873-1.243 1.75-2.128 2.531C17.263 18.743 14.786 20 12 20c-2.787 0-5.263-1.257-7.026-2.813-.885-.781-1.614-1.658-2.128-2.531C2.34 13.799 2 12.87 2 12c0-.87.34-1.799.846-2.656.514-.873 1.243-1.75 2.128-2.531C6.737 5.257 9.214 4 12 4Zm0 2c-2.184 0-4.208.993-5.702 2.312-.744.656-1.332 1.373-1.729 2.047C4.163 11.049 4 11.62 4 12c0 .38.163.951.569 1.641.397.674.985 1.39 1.729 2.047C7.792 17.007 9.816 18 12 18s4.208-.993 5.702-2.312c.744-.657 1.332-1.373 1.729-2.047.406-.69.569-1.261.569-1.641 0-.38-.163-.951-.569-1.641-.397-.674-.985-1.39-1.729-2.047C16.208 6.993 14.184 6 12 6Zm0 3c.088 0 .175.004.261.011a2 2 0 0 0 2.728 2.728A3 3 0 1 1 12 9Z"/></g></svg>
